source/post_process_effects/images/with_tone_mapper.CUBE
#Created by: Adobe Photoshop Export Color Lookup Plugin
TITLE "with_tone_mapper.png"
#LUT size
LUT_3D_SIZE 5
#data domain
#LUT data points
DOMAIN_MIN 0.000000 0.000000 0.000000
DOMAIN_MAX 0.903226 0.903226 0.903226
0.000000 0.000000 0.000000
0.238586 0.000000 0.000000
0.570923 0.000000 0.000031
0.836823 0.000000 0.000061
0.973785 0.000000 0.000092
0.000000 0.238586 0.000000
0.238586 0.238586 0.000000
0.570923 0.238586 0.000031
0.836823 0.238586 0.000061
0.973785 0.238586 0.000061
0.000000 0.570923 0.000000
0.238586 0.570923 0.000000
0.570923 0.570923 0.000000
0.836823 0.570923 0.000000
0.973785 0.570923 0.000031
0.000000 0.836823 0.000000
0.238586 0.836823 0.000000
0.570923 0.836823 0.000000
0.836823 0.836823 0.000000
0.973785 0.836823 0.000000
0.000000 0.973785 0.000000
0.238586 0.973785 0.000000
0.570923 0.973785 0.000000
0.836823 0.973785 0.000000
0.973785 0.973785 0.000000
0.000000 0.000000 0.238586
0.238586 0.000000 0.238586
0.570923 0.000000 0.238586
0.836823 0.000000 0.238586
0.973785 0.000000 0.238586
0.000000 0.238586 0.238586
0.238586 0.238586 0.238586
0.572815 0.227753 0.227753
0.837555 0.222137 0.222137
0.973907 0.220673 0.220673
0.000000 0.570923 0.238586
0.221313 0.573395 0.221313
0.573395 0.573395 0.221313
0.837555 0.567993 0.222137
0.973907 0.566589 0.220673
0.000000 0.836823 0.238586
0.218658 0.837646 0.218658
0.567383 0.837646 0.218658
0.837646 0.837646 0.218658
0.973907 0.835693 0.218658
0.000000 0.973785 0.238586
0.218048 0.973907 0.218048
0.566010 0.973907 0.218048
0.835663 0.973907 0.218048
0.973907 0.973907 0.218048
0.000000 0.000000 0.570923
0.238586 0.000000 0.570923
0.570923 0.000000 0.570923
0.836823 0.000000 0.570923
0.973785 0.000000 0.570923
0.000000 0.238586 0.570923
0.221313 0.221313 0.573395
0.573395 0.221313 0.573395
0.837585 0.220856 0.567780
0.973907 0.219971 0.566437
0.000000 0.570923 0.570923
0.221313 0.573395 0.573395
0.570923 0.570923 0.570923
0.838135 0.565796 0.565796
0.974091 0.560699 0.560699
0.000000 0.836823 0.570923
0.218658 0.837646 0.567383
0.552643 0.839600 0.552643
0.839600 0.839600 0.552643
0.974152 0.833557 0.556793
0.000000 0.973785 0.570923
0.218048 0.973907 0.566010
0.546967 0.974274 0.546967
0.831238 0.974274 0.546967
0.974274 0.974274 0.546967
0.000000 0.000000 0.836823
0.238586 0.000000 0.836823
0.570923 0.000000 0.836823
0.836823 0.000000 0.836823
0.973785 0.000000 0.836823
0.000000 0.238586 0.836823
0.218658 0.218658 0.837646
0.567383 0.218658 0.837646
0.837646 0.218658 0.837646
0.973907 0.218872 0.835693
0.000000 0.570923 0.836823
0.218658 0.567383 0.837646
0.552643 0.552643 0.839600
0.839600 0.552643 0.839600
0.974213 0.553436 0.832764
0.000000 0.836823 0.836823
0.218658 0.837646 0.837646
0.552643 0.839600 0.839600
0.836823 0.836823 0.836823
0.973907 0.835968 0.835968
0.000000 0.973785 0.836823
0.218048 0.973907 0.835663
0.546967 0.974274 0.831238
0.830688 0.974274 0.830688
0.974274 0.974274 0.830688
0.000000 0.000000 0.973785
0.238586 0.000000 0.973785
0.570923 0.000000 0.973785
0.836823 0.000000 0.973785
0.973785 0.000000 0.973785
0.000000 0.238586 0.973785
0.218079 0.218079 0.973907
0.566010 0.218048 0.973907
0.835663 0.218048 0.973907
0.973907 0.218048 0.973907
0.000000 0.570923 0.973785
0.218048 0.566010 0.973907
0.546967 0.546967 0.974274
0.831238 0.546967 0.974274
0.974274 0.546967 0.974274
0.000000 0.836823 0.973785
0.218048 0.835663 0.973907
0.546967 0.831238 0.974274
0.830688 0.830688 0.974274
0.974274 0.830688 0.974274
0.000000 0.973785 0.973785
0.218048 0.973907 0.973907
0.546967 0.974274 0.974274
0.830688 0.974274 0.974274
0.973785 0.973785 0.973785
