source/post_process_effects/images/with_tone_mapper.CUBE
#Created by: Adobe Photoshop Export Color Lookup Plugin
TITLE "with_tone_mapper.png"
#LUT size
LUT_3D_SIZE 8
#data domain
#LUT data points
DOMAIN_MIN 0.000000 0.000000 0.000000
DOMAIN_MAX 0.903226 0.903226 0.903226
0.000000 0.000000 0.000000
0.124268 0.000000 0.000000
0.280731 0.000000 0.000000
0.469421 0.000000 0.000031
0.661438 0.000000 0.000031
0.807343 0.000000 0.000061
0.909668 0.000000 0.000061
0.973785 0.000000 0.000092
0.000000 0.124268 0.000000
0.124268 0.124268 0.000000
0.280731 0.124268 0.000000
0.469421 0.124268 0.000000
0.661438 0.124268 0.000031
0.807343 0.124268 0.000061
0.909668 0.124268 0.000061
0.973785 0.124268 0.000092
0.000000 0.280731 0.000000
0.124268 0.280731 0.000000
0.280731 0.280731 0.000000
0.469421 0.280731 0.000000
0.661438 0.280731 0.000031
0.807343 0.280731 0.000031
0.909668 0.280731 0.000061
0.973785 0.280731 0.000061
0.000000 0.469421 0.000000
0.124268 0.469421 0.000000
0.280731 0.469421 0.000000
0.469421 0.469421 0.000000
0.661438 0.469421 0.000000
0.807343 0.469421 0.000031
0.909668 0.469421 0.000031
0.973785 0.469421 0.000061
0.000000 0.661438 0.000000
0.124268 0.661438 0.000000
0.280731 0.661438 0.000000
0.469421 0.661438 0.000000
0.661438 0.661438 0.000000
0.807343 0.661438 0.000000
0.909668 0.661438 0.000000
0.973785 0.661438 0.000031
0.000000 0.807343 0.000000
0.124268 0.807343 0.000000
0.280731 0.807343 0.000000
0.469421 0.807343 0.000000
0.661438 0.807343 0.000000
0.807343 0.807343 0.000000
0.909668 0.807343 0.000000
0.973785 0.807343 0.000000
0.000000 0.909668 0.000000
0.124268 0.909668 0.000000
0.280731 0.909668 0.000000
0.469421 0.909668 0.000000
0.661438 0.909668 0.000000
0.807343 0.909668 0.000000
0.909668 0.909668 0.000000
0.973785 0.909668 0.000000
0.000000 0.973785 0.000000
0.124268 0.973785 0.000000
0.280731 0.973785 0.000000
0.469421 0.973785 0.000000
0.661438 0.973785 0.000000
0.807343 0.973785 0.000000
0.909668 0.973785 0.000000
0.973785 0.973785 0.000000
0.000000 0.000000 0.124268
0.124268 0.000000 0.124268
0.280731 0.000000 0.124268
0.469421 0.000000 0.124268
0.661438 0.000000 0.124268
0.807343 0.000000 0.124268
0.909668 0.000000 0.124268
0.973785 0.000000 0.124268
0.000000 0.124268 0.124268
0.124268 0.124268 0.124268
0.282227 0.119232 0.119232
0.470551 0.114319 0.114319
0.662048 0.112518 0.112518
0.807648 0.111847 0.111847
0.909790 0.111572 0.111572
0.973816 0.111450 0.111450
0.000000 0.280731 0.124268
0.114471 0.282898 0.114471
0.282898 0.282898 0.114471
0.470551 0.278534 0.114319
0.662048 0.276886 0.112518
0.807648 0.276306 0.111847
0.909790 0.276031 0.111572
0.973816 0.275909 0.111420
0.000000 0.469421 0.124268
0.112030 0.470673 0.112030
0.277954 0.470673 0.112030
0.470673 0.470673 0.112030
0.662048 0.468475 0.112518
0.807648 0.467712 0.111847
0.909790 0.467377 0.111572
0.973816 0.467224 0.111420
0.000000 0.661438 0.124268
0.111298 0.662079 0.111267
0.276489 0.662079 0.111267
0.468353 0.662079 0.111298
0.662079 0.662079 0.111298
0.807648 0.661041 0.111420
0.909790 0.660614 0.111572
0.973816 0.660431 0.111420
0.000000 0.807343 0.124268
0.111053 0.807678 0.111023
0.276001 0.807678 0.111023
0.467590 0.807678 0.111053
0.661041 0.807678 0.111053
0.807678 0.807678 0.111053
0.909821 0.807129 0.110931
0.973816 0.806885 0.111115
0.000000 0.909668 0.124268
0.110931 0.909821 0.110931
0.275818 0.909821 0.110931
0.467285 0.909821 0.110931
0.660583 0.909821 0.110931
0.807129 0.909821 0.110931
0.909821 0.909821 0.110931
0.973816 0.909515 0.110901
0.000000 0.973785 0.124268
0.110870 0.973816 0.110870
0.275726 0.973816 0.110870
0.467133 0.973816 0.110870
0.660370 0.973816 0.110870
0.806885 0.973816 0.110901
0.909515 0.973816 0.110901
0.973816 0.973816 0.110901
0.000000 0.000000 0.280731
0.124268 0.000000 0.280731
0.280731 0.000000 0.280731
0.469421 0.000000 0.280731
0.661438 0.000000 0.280731
0.807343 0.000000 0.280731
0.909668 0.000000 0.280731
0.973785 0.000000 0.280731
0.000000 0.124268 0.280731
0.114471 0.114471 0.282898
0.282898 0.114471 0.282898
0.470581 0.113708 0.278351
0.662048 0.112335 0.276825
0.807648 0.111786 0.276276
0.909790 0.111511 0.276001
0.973816 0.111389 0.275879
0.000000 0.280731 0.280731
0.114471 0.282898 0.282898
0.280731 0.280731 0.280731
0.471466 0.275818 0.275818
0.663269 0.268433 0.268433
0.808441 0.264709 0.264709
0.910187 0.262878 0.262878
0.973938 0.261963 0.261963
0.000000 0.469421 0.280731
0.112030 0.470673 0.277954
0.266479 0.473114 0.266479
0.473114 0.473114 0.266479
0.663269 0.466400 0.268433
0.808441 0.463379 0.264709
0.910187 0.461853 0.262878
0.973938 0.461060 0.261963
0.000000 0.661438 0.280731
0.111267 0.662079 0.276489
0.261200 0.663849 0.261200
0.464447 0.663849 0.261200
0.663849 0.663849 0.261200
0.808502 0.659912 0.262665
0.910187 0.658478 0.262878
0.973938 0.657623 0.261963
0.000000 0.807343 0.280731
0.111023 0.807678 0.276001
0.259338 0.808624 0.259338
0.461365 0.808624 0.259338
0.659607 0.808624 0.259338
0.808624 0.808624 0.259338
0.910248 0.806396 0.258636
0.973938 0.805511 0.260040
0.000000 0.909668 0.280731
0.110931 0.909821 0.275818
0.258514 0.910248 0.258514
0.460022 0.910248 0.258514
0.657745 0.910248 0.258514
0.806396 0.910248 0.258514
0.910248 0.910248 0.258514
0.973938 0.909058 0.258118
0.000000 0.973785 0.280731
0.110870 0.973816 0.275726
0.258118 0.973938 0.258118
0.459412 0.973938 0.258118
0.656891 0.973938 0.258118
0.805328 0.973938 0.258118
0.909058 0.973938 0.258118
0.973938 0.973938 0.258118
0.000000 0.000000 0.469421
0.124268 0.000000 0.469421
0.280731 0.000000 0.469421
0.469421 0.000000 0.469421
0.661438 0.000000 0.469421
0.807343 0.000000 0.469421
0.909668 0.000000 0.469421
0.973785 0.000000 0.469421
0.000000 0.124268 0.469421
0.112030 0.112030 0.470673
0.277954 0.112030 0.470673
0.470673 0.112030 0.470673
0.662079 0.111969 0.468414
0.807648 0.111603 0.467682
0.909821 0.111420 0.467346
0.973816 0.111328 0.467194
0.000000 0.280731 0.469421
0.112030 0.277954 0.470673
0.266479 0.266479 0.473114
0.473114 0.266479 0.473114
0.663483 0.265961 0.465729
0.808472 0.263580 0.462952
0.910187 0.262177 0.461548
0.973938 0.261444 0.460846
0.000000 0.469421 0.469421
0.112030 0.470673 0.470673
0.266479 0.473114 0.473114
0.469421 0.469421 0.469421
0.663208 0.466003 0.466003
0.808960 0.460388 0.460388
0.910553 0.456451 0.456451
0.974060 0.454224 0.454224
0.000000 0.661438 0.469421
0.111267 0.662079 0.468353
0.261200 0.663849 0.464447
0.454315 0.665558 0.454315
0.665558 0.665558 0.454315
0.808960 0.659485 0.460388
0.910553 0.656403 0.456451
0.974060 0.654541 0.454224
0.000000 0.807343 0.469421
0.111023 0.807678 0.467590
0.259338 0.808624 0.461365
0.447632 0.810059 0.447632
0.656097 0.810059 0.447632
0.810059 0.810059 0.447632
0.910889 0.805084 0.447632
0.974091 0.803802 0.451447
0.000000 0.909668 0.469421
0.110931 0.909821 0.467285
0.258514 0.910248 0.460022
0.444519 0.910980 0.444519
0.651703 0.910980 0.444519
0.804718 0.910980 0.444519
0.910980 0.910980 0.444519
0.974182 0.908081 0.443024
0.000000 0.973785 0.469421
0.110870 0.973816 0.467133
0.258118 0.973938 0.459412
0.443024 0.974182 0.443024
0.649567 0.974182 0.443024
0.802124 0.974182 0.443024
0.908081 0.974182 0.443024
0.974182 0.974182 0.443024
0.000000 0.000000 0.661438
0.124268 0.000000 0.661438
0.280731 0.000000 0.661438
0.469421 0.000000 0.661438
0.661438 0.000000 0.661438
0.807343 0.000000 0.661438
0.909668 0.000000 0.661438
0.973785 0.000000 0.661438
0.000000 0.124268 0.661438
0.111298 0.111298 0.662079
0.276489 0.111298 0.662079
0.468353 0.111298 0.662079
0.662079 0.111267 0.662079
0.807648 0.111328 0.661041
0.909821 0.111267 0.660614
0.973816 0.111206 0.660400
0.000000 0.280731 0.661438
0.111267 0.276489 0.662079
0.261200 0.261200 0.663849
0.464447 0.261200 0.663849
0.663849 0.261200 0.663849
0.808533 0.261597 0.659821
0.910217 0.260986 0.658142
0.973938 0.260559 0.657349
0.000000 0.469421 0.661438
0.111267 0.468353 0.662079
0.261200 0.464447 0.663849
0.454315 0.454315 0.665558
0.665558 0.454315 0.665558
0.809509 0.454987 0.658081
0.910706 0.452911 0.654999
0.974091 0.451447 0.653290
0.000000 0.661438 0.661438
0.111267 0.662079 0.662079
0.261200 0.663849 0.663849
0.454315 0.665558 0.665558
0.661438 0.661438 0.661438
0.808258 0.660126 0.660126
0.910400 0.657623 0.657623
0.974060 0.655579 0.655579
0.000000 0.807343 0.661438
0.111023 0.807678 0.661041
0.259338 0.808624 0.659607
0.447632 0.810059 0.656097
0.651520 0.810272 0.651520
0.810272 0.810272 0.651520
0.910553 0.806091 0.656311
0.974060 0.804810 0.655579
0.000000 0.909668 0.661438
0.110931 0.909821 0.660583
0.258514 0.910248 0.657745
0.444519 0.910980 0.651703
0.645416 0.911438 0.645416
0.802826 0.911438 0.645416
0.911438 0.911438 0.645416
0.974335 0.907074 0.642242
0.000000 0.973785 0.661438
0.110870 0.973816 0.660370
0.258118 0.973938 0.656891
0.443024 0.974182 0.649567
0.642242 0.974335 0.642242
0.798950 0.974335 0.642242
0.907074 0.974335 0.642242
0.974335 0.974335 0.642242
0.000000 0.000000 0.807343
0.124268 0.000000 0.807343
0.280731 0.000000 0.807343
0.469421 0.000000 0.807343
0.661438 0.000000 0.807343
0.807343 0.000000 0.807343
0.909668 0.000000 0.807343
0.973785 0.000000 0.807343
0.000000 0.124268 0.807343
0.111053 0.111053 0.807678
0.276001 0.111053 0.807678
0.467590 0.111053 0.807678
0.661041 0.111053 0.807678
0.807678 0.111023 0.807678
0.909821 0.111084 0.807129
0.973816 0.111053 0.806885
0.000000 0.280731 0.807343
0.111023 0.276001 0.807678
0.259338 0.259338 0.808624
0.461365 0.259338 0.808624
0.659607 0.259338 0.808624
0.808624 0.259338 0.808624
0.910217 0.259705 0.806458
0.973938 0.259613 0.805450
0.000000 0.469421 0.807343
0.111023 0.467590 0.807678
0.259338 0.461365 0.808624
0.447632 0.447632 0.810059
0.656097 0.447632 0.810059
0.810059 0.447632 0.810059
0.910858 0.448639 0.805206
0.974121 0.448242 0.803162
0.000000 0.661438 0.807343
0.111023 0.661041 0.807678
0.259338 0.659607 0.808624
0.447632 0.656097 0.810059
0.651520 0.651520 0.810272
0.810272 0.651520 0.810272
0.910980 0.652161 0.804871
0.974182 0.651123 0.802856
0.000000 0.807343 0.807343
0.111023 0.807678 0.807678
0.259338 0.808624 0.808624
0.447632 0.810059 0.810059
0.651520 0.810272 0.810272
0.807343 0.807343 0.807343
0.910004 0.806854 0.806854
0.973938 0.806000 0.806000
0.000000 0.909668 0.807343
0.110931 0.909821 0.807129
0.258514 0.910248 0.806396
0.444519 0.910980 0.804718
0.645416 0.911438 0.802826
0.802490 0.911011 0.802490
0.911011 0.911011 0.802490
0.974060 0.908752 0.804260
0.000000 0.973785 0.807343
0.110870 0.973816 0.806885
0.258118 0.973938 0.805328
0.443024 0.974182 0.802124
0.642242 0.974335 0.798950
0.799011 0.974304 0.799011
0.907074 0.974304 0.799011
0.974304 0.974304 0.799011
0.000000 0.000000 0.909668
0.124268 0.000000 0.909668
0.280731 0.000000 0.909668
0.469421 0.000000 0.909668
0.661438 0.000000 0.909668
0.807343 0.000000 0.909668
0.909668 0.000000 0.909668
0.973785 0.000000 0.909668
0.000000 0.124268 0.909668
0.110931 0.110931 0.909821
0.275818 0.110931 0.909821
0.467285 0.110931 0.909821
0.660583 0.110931 0.909821
0.807129 0.110931 0.909821
0.909821 0.110931 0.909821
0.973816 0.110962 0.909515
0.000000 0.280731 0.909668
0.110931 0.275818 0.909821
0.258514 0.258514 0.910248
0.460022 0.258514 0.910248
0.657745 0.258514 0.910248
0.806396 0.258514 0.910248
0.910248 0.258514 0.910248
0.973938 0.258759 0.909088
0.000000 0.469421 0.909668
0.110931 0.467285 0.909821
0.258514 0.460022 0.910248
0.444519 0.444519 0.910980
0.651703 0.444519 0.910980
0.804718 0.444519 0.910980
0.910980 0.444519 0.910980
0.974152 0.445251 0.908234
0.000000 0.661438 0.909668
0.110931 0.660583 0.909821
0.258514 0.657745 0.910248
0.444519 0.651703 0.910980
0.645416 0.645416 0.911438
0.802826 0.645416 0.911438
0.911438 0.645416 0.911438
0.974274 0.646301 0.907654
0.000000 0.807343 0.909668
0.110931 0.807129 0.909821
0.258514 0.806396 0.910248
0.444519 0.804718 0.910980
0.645416 0.802826 0.911438
0.802490 0.802490 0.911011
0.911011 0.802490 0.911011
0.974152 0.802612 0.908234
0.000000 0.909668 0.909668
0.110931 0.909821 0.909821
0.258514 0.910248 0.910248
0.444519 0.910980 0.910980
0.645416 0.911438 0.911438
0.802490 0.911011 0.911011
0.909668 0.909668 0.909668
0.973846 0.909485 0.909485
0.000000 0.973785 0.909668
0.110870 0.973816 0.909515
0.258118 0.973938 0.909058
0.443024 0.974182 0.908081
0.642242 0.974335 0.907074
0.799011 0.974304 0.907074
0.907959 0.974091 0.907959
0.974091 0.974091 0.907959
0.000000 0.000000 0.973785
0.124268 0.000000 0.973785
0.280731 0.000000 0.973785
0.469421 0.000000 0.973785
0.661438 0.000000 0.973785
0.807343 0.000000 0.973785
0.909668 0.000000 0.973785
0.973785 0.000000 0.973785
0.000000 0.124268 0.973785
0.110901 0.110901 0.973816
0.275726 0.110901 0.973816
0.467133 0.110901 0.973816
0.660370 0.110901 0.973816
0.806885 0.110870 0.973816
0.909515 0.110870 0.973816
0.973816 0.110870 0.973816
0.000000 0.280731 0.973785
0.110870 0.275726 0.973816
0.258118 0.258118 0.973938
0.459412 0.258118 0.973938
0.656891 0.258118 0.973938
0.805328 0.258118 0.973938
0.909058 0.258118 0.973938
0.973938 0.258118 0.973938
0.000000 0.469421 0.973785
0.110870 0.467133 0.973816
0.258118 0.459412 0.973938
0.443024 0.443024 0.974182
0.649567 0.443024 0.974182
0.802124 0.443024 0.974182
0.908081 0.443024 0.974182
0.974182 0.443024 0.974182
0.000000 0.661438 0.973785
0.110870 0.660370 0.973816
0.258118 0.656891 0.973938
0.443024 0.649567 0.974182
0.642242 0.642242 0.974335
0.798950 0.642242 0.974335
0.907074 0.642242 0.974335
0.974335 0.642242 0.974335
0.000000 0.807343 0.973785
0.110870 0.806885 0.973816
0.258118 0.805328 0.973938
0.443024 0.802124 0.974182
0.642242 0.798950 0.974335
0.799011 0.799011 0.974304
0.907074 0.799011 0.974304
0.974304 0.799011 0.974304
0.000000 0.909668 0.973785
0.110870 0.909515 0.973816
0.258118 0.909058 0.973938
0.443024 0.908081 0.974182
0.642242 0.907074 0.974335
0.799011 0.907074 0.974304
0.907959 0.907959 0.974091
0.974091 0.907959 0.974091
0.000000 0.973785 0.973785
0.110870 0.973816 0.973816
0.258118 0.973938 0.973938
0.443024 0.974182 0.974182
0.642242 0.974335 0.974335
0.799011 0.974304 0.974304
0.907959 0.974091 0.974091
0.973785 0.973785 0.973785
