source/post_process_effects/images/with_tone_mapper.CUBE
#Created by: Adobe Photoshop Export Color Lookup Plugin
TITLE "with_tone_mapper.png"
#LUT size
LUT_3D_SIZE 32
#data domain
DOMAIN_MIN 0.0 0.0 0.0
DOMAIN_MAX 1.0 1.0 1.0
#LUT data points
0.000000 0.000000 0.000000
0.028046 0.000000 0.000000
0.058136 0.000000 0.000000
0.090179 0.000000 0.000000
0.124268 0.000000 0.000000
0.160370 0.000000 0.000000
0.198486 0.000000 0.000000
0.238586 0.000000 0.000000
0.280731 0.000000 0.000000
0.324890 0.000000 0.000000
0.371063 0.000000 0.000000
0.419250 0.000000 0.000000
0.469421 0.000000 0.000031
0.521210 0.000000 0.000031
0.570923 0.000000 0.000031
0.617645 0.000000 0.000031
0.661438 0.000000 0.000031
0.702240 0.000000 0.000031
0.740112 0.000000 0.000031
0.775146 0.000000 0.000061
0.807343 0.000000 0.000061
0.836823 0.000000 0.000061
0.863617 0.000000 0.000061
0.887878 0.000000 0.000061
0.909668 0.000000 0.000061
0.929016 0.000000 0.000061
0.946136 0.000000 0.000061
0.961029 0.000000 0.000092
0.973785 0.000000 0.000092
0.984497 0.000000 0.000092
0.993225 0.000000 0.000092
1.000000 0.000000 0.000092
0.000000 0.028046 0.000000
0.028046 0.028046 0.000000
0.058136 0.028046 0.000000
0.090179 0.028046 0.000000
0.124268 0.028046 0.000000
0.160370 0.028046 0.000000
0.198486 0.028046 0.000000
0.238586 0.028046 0.000000
0.280731 0.028046 0.000000
0.324890 0.028046 0.000000
0.371063 0.028046 0.000000
0.419250 0.028046 0.000000
0.469421 0.028046 0.000031
0.521210 0.028046 0.000031
0.570923 0.028046 0.000031
0.617645 0.028046 0.000031
0.661438 0.028046 0.000031
0.702240 0.028046 0.000031
0.740112 0.028046 0.000031
0.775146 0.028046 0.000061
0.807343 0.028046 0.000061
0.836823 0.028046 0.000061
0.863617 0.028046 0.000061
0.887878 0.028046 0.000061
0.909668 0.028046 0.000061
0.929016 0.028046 0.000061
0.946136 0.028046 0.000061
0.961029 0.028046 0.000092
0.973785 0.028046 0.000092
0.984497 0.028046 0.000092
0.993225 0.028046 0.000092
1.000000 0.028046 0.000092
0.000000 0.058136 0.000000
0.028046 0.058136 0.000000
0.058136 0.058136 0.000000
0.090179 0.058136 0.000000
0.124268 0.058136 0.000000
0.160370 0.058136 0.000000
0.198486 0.058136 0.000000
0.238586 0.058136 0.000000
0.280731 0.058136 0.000000
0.324890 0.058136 0.000000
0.371063 0.058136 0.000000
0.419250 0.058136 0.000000
0.469421 0.058136 0.000000
0.521210 0.058136 0.000031
0.570923 0.058136 0.000031
0.617645 0.058136 0.000031
0.661438 0.058136 0.000031
0.702240 0.058136 0.000031
0.740112 0.058136 0.000031
0.775146 0.058136 0.000061
0.807343 0.058136 0.000061
0.836823 0.058136 0.000061
0.863617 0.058136 0.000061
0.887878 0.058136 0.000061
0.909668 0.058136 0.000061
0.929016 0.058136 0.000061
0.946136 0.058136 0.000061
0.961029 0.058136 0.000061
0.973785 0.058136 0.000092
0.984497 0.058136 0.000092
0.993225 0.058136 0.000092
1.000000 0.058136 0.000092
0.000000 0.090179 0.000000
0.028046 0.090179 0.000000
0.058136 0.090179 0.000000
0.090179 0.090179 0.000000
0.124268 0.090179 0.000000
0.160370 0.090179 0.000000
0.198486 0.090179 0.000000
0.238586 0.090179 0.000000
0.280731 0.090179 0.000000
0.324890 0.090179 0.000000
0.371063 0.090179 0.000000
0.419250 0.090179 0.000000
0.469421 0.090179 0.000000
0.521210 0.090179 0.000031
0.570923 0.090179 0.000031
0.617645 0.090179 0.000031
0.661438 0.090179 0.000031
0.702240 0.090179 0.000031
0.740112 0.090179 0.000031
0.775146 0.090179 0.000061
0.807343 0.090179 0.000061
0.836823 0.090179 0.000061
0.863617 0.090179 0.000061
0.887878 0.090179 0.000061
0.909668 0.090179 0.000061
0.929016 0.090179 0.000061
0.946136 0.090179 0.000061
0.961029 0.090179 0.000061
0.973785 0.090179 0.000092
0.984497 0.090179 0.000092
0.993225 0.090179 0.000092
1.000000 0.090179 0.000092
0.000000 0.124268 0.000000
0.028046 0.124268 0.000000
0.058136 0.124268 0.000000
0.090179 0.124268 0.000000
0.124268 0.124268 0.000000
0.160370 0.124268 0.000000
0.198486 0.124268 0.000000
0.238586 0.124268 0.000000
0.280731 0.124268 0.000000
0.324890 0.124268 0.000000
0.371063 0.124268 0.000000
0.419250 0.124268 0.000000
0.469421 0.124268 0.000000
0.521210 0.124268 0.000031
0.570923 0.124268 0.000031
0.617645 0.124268 0.000031
0.661438 0.124268 0.000031
0.702240 0.124268 0.000031
0.740112 0.124268 0.000031
0.775146 0.124268 0.000031
0.807343 0.124268 0.000061
0.836823 0.124268 0.000061
0.863617 0.124268 0.000061
0.887878 0.124268 0.000061
0.909668 0.124268 0.000061
0.929016 0.124268 0.000061
0.946136 0.124268 0.000061
0.961029 0.124268 0.000061
0.973785 0.124268 0.000092
0.984497 0.124268 0.000092
0.993225 0.124268 0.000092
1.000000 0.124268 0.000092
0.000000 0.160370 0.000000
0.028046 0.160370 0.000000
0.058136 0.160370 0.000000
0.090179 0.160370 0.000000
0.124268 0.160370 0.000000
0.160370 0.160370 0.000000
0.198486 0.160370 0.000000
0.238586 0.160370 0.000000
0.280731 0.160370 0.000000
0.324890 0.160370 0.000000
0.371063 0.160370 0.000000
0.419250 0.160370 0.000000
0.469421 0.160370 0.000000
0.521210 0.160370 0.000031
0.570923 0.160370 0.000031
0.617645 0.160370 0.000031
0.661438 0.160370 0.000031
0.702240 0.160370 0.000031
0.740112 0.160370 0.000031
0.775146 0.160370 0.000031
0.807343 0.160370 0.000061
0.836823 0.160370 0.000061
0.863617 0.160370 0.000061
0.887878 0.160370 0.000061
0.909668 0.160370 0.000061
0.929016 0.160370 0.000061
0.946136 0.160370 0.000061
0.961029 0.160370 0.000061
0.973785 0.160370 0.000061
0.984497 0.160370 0.000092
0.993225 0.160370 0.000092
1.000000 0.160370 0.000092
0.000000 0.198486 0.000000
0.028046 0.198486 0.000000
0.058136 0.198486 0.000000
0.090179 0.198486 0.000000
0.124268 0.198486 0.000000
0.160370 0.198486 0.000000
0.198486 0.198486 0.000000
0.238586 0.198486 0.000000
0.280731 0.198486 0.000000
0.324890 0.198486 0.000000
0.371063 0.198486 0.000000
0.419250 0.198486 0.000000
0.469421 0.198486 0.000000
0.521210 0.198486 0.000000
0.570923 0.198486 0.000031
0.617645 0.198486 0.000031
0.661438 0.198486 0.000031
0.702240 0.198486 0.000031
0.740112 0.198486 0.000031
0.775146 0.198486 0.000031
0.807343 0.198486 0.000061
0.836823 0.198486 0.000061
0.863617 0.198486 0.000061
0.887878 0.198486 0.000061
0.909668 0.198486 0.000061
0.929016 0.198486 0.000061
0.946136 0.198486 0.000061
0.961029 0.198486 0.000061
0.973785 0.198486 0.000061
0.984497 0.198486 0.000061
0.993225 0.198486 0.000092
1.000000 0.198486 0.000092
0.000000 0.238586 0.000000
0.028046 0.238586 0.000000
0.058136 0.238586 0.000000
0.090179 0.238586 0.000000
0.124268 0.238586 0.000000
0.160370 0.238586 0.000000
0.198486 0.238586 0.000000
0.238586 0.238586 0.000000
0.280731 0.238586 0.000000
0.324890 0.238586 0.000000
0.371063 0.238586 0.000000
0.419250 0.238586 0.000000
0.469421 0.238586 0.000000
0.521210 0.238586 0.000000
0.570923 0.238586 0.000031
0.617645 0.238586 0.000031
0.661438 0.238586 0.000031
0.702240 0.238586 0.000031
0.740112 0.238586 0.000031
0.775146 0.238586 0.000031
0.807343 0.238586 0.000031
0.836823 0.238586 0.000061
0.863617 0.238586 0.000061
0.887878 0.238586 0.000061
0.909668 0.238586 0.000061
0.929016 0.238586 0.000061
0.946136 0.238586 0.000061
0.961029 0.238586 0.000061
0.973785 0.238586 0.000061
0.984497 0.238586 0.000061
0.993225 0.238586 0.000061
1.000000 0.238586 0.000092
0.000000 0.280731 0.000000
0.028046 0.280731 0.000000
0.058136 0.280731 0.000000
0.090179 0.280731 0.000000
0.124268 0.280731 0.000000
0.160370 0.280731 0.000000
0.198486 0.280731 0.000000
0.238586 0.280731 0.000000
0.280731 0.280731 0.000000
0.324890 0.280731 0.000000
0.371063 0.280731 0.000000
0.419250 0.280731 0.000000
0.469421 0.280731 0.000000
0.521210 0.280731 0.000000
0.570923 0.280731 0.000000
0.617645 0.280731 0.000031
0.661438 0.280731 0.000031
0.702240 0.280731 0.000031
0.740112 0.280731 0.000031
0.775146 0.280731 0.000031
0.807343 0.280731 0.000031
0.836823 0.280731 0.000061
0.863617 0.280731 0.000061
0.887878 0.280731 0.000061
0.909668 0.280731 0.000061
0.929016 0.280731 0.000061
0.946136 0.280731 0.000061
0.961029 0.280731 0.000061
0.973785 0.280731 0.000061
0.984497 0.280731 0.000061
0.993225 0.280731 0.000061
1.000000 0.280731 0.000061
0.000000 0.324890 0.000000
0.028046 0.324890 0.000000
0.058136 0.324890 0.000000
0.090179 0.324890 0.000000
0.124268 0.324890 0.000000
0.160370 0.324890 0.000000
0.198486 0.324890 0.000000
0.238586 0.324890 0.000000
0.280731 0.324890 0.000000
0.324890 0.324890 0.000000
0.371063 0.324890 0.000000
0.419250 0.324890 0.000000
0.469421 0.324890 0.000000
0.521210 0.324890 0.000000
0.570923 0.324890 0.000000
0.617645 0.324890 0.000000
0.661438 0.324890 0.000031
0.702240 0.324890 0.000031
0.740112 0.324890 0.000031
0.775146 0.324890 0.000031
0.807343 0.324890 0.000031
0.836823 0.324890 0.000031
0.863617 0.324890 0.000061
0.887878 0.324890 0.000061
0.909668 0.324890 0.000061
0.929016 0.324890 0.000061
0.946136 0.324890 0.000061
0.961029 0.324890 0.000061
0.973785 0.324890 0.000061
0.984497 0.324890 0.000061
0.993225 0.324890 0.000061
1.000000 0.324890 0.000061
0.000000 0.371063 0.000000
0.028046 0.371063 0.000000
0.058136 0.371063 0.000000
0.090179 0.371063 0.000000
0.124268 0.371063 0.000000
0.160370 0.371063 0.000000
0.198486 0.371063 0.000000
0.238586 0.371063 0.000000
0.280731 0.371063 0.000000
0.324890 0.371063 0.000000
0.371063 0.371063 0.000000
0.419250 0.371063 0.000000
0.469421 0.371063 0.000000
0.521210 0.371063 0.000000
0.570923 0.371063 0.000000
0.617645 0.371063 0.000000
0.661438 0.371063 0.000031
0.702240 0.371063 0.000031
0.740112 0.371063 0.000031
0.775146 0.371063 0.000031
0.807343 0.371063 0.000031
0.836823 0.371063 0.000031
0.863617 0.371063 0.000031
0.887878 0.371063 0.000061
0.909668 0.371063 0.000061
0.929016 0.371063 0.000061
0.946136 0.371063 0.000061
0.961029 0.371063 0.000061
0.973785 0.371063 0.000061
0.984497 0.371063 0.000061
0.993225 0.371063 0.000061
1.000000 0.371063 0.000061
0.000000 0.419250 0.000000
0.028046 0.419250 0.000000
0.058136 0.419250 0.000000
0.090179 0.419250 0.000000
0.124268 0.419250 0.000000
0.160370 0.419250 0.000000
0.198486 0.419250 0.000000
0.238586 0.419250 0.000000
0.280731 0.419250 0.000000
0.324890 0.419250 0.000000
0.371063 0.419250 0.000000
0.419250 0.419250 0.000000
0.469421 0.419250 0.000000
0.521210 0.419250 0.000000
0.570923 0.419250 0.000000
0.617645 0.419250 0.000000
0.661438 0.419250 0.000000
0.702240 0.419250 0.000000
0.740112 0.419250 0.000031
0.775146 0.419250 0.000031
0.807343 0.419250 0.000031
0.836823 0.419250 0.000031
0.863617 0.419250 0.000031
0.887878 0.419250 0.000031
0.909668 0.419250 0.000031
0.929016 0.419250 0.000061
0.946136 0.419250 0.000061
0.961029 0.419250 0.000061
0.973785 0.419250 0.000061
0.984497 0.419250 0.000061
0.993225 0.419250 0.000061
1.000000 0.419250 0.000061
0.000000 0.469421 0.000000
0.028046 0.469421 0.000000
0.058136 0.469421 0.000000
0.090179 0.469421 0.000000
0.124268 0.469421 0.000000
0.160370 0.469421 0.000000
0.198486 0.469421 0.000000
0.238586 0.469421 0.000000
0.280731 0.469421 0.000000
0.324890 0.469421 0.000000
0.371063 0.469421 0.000000
0.419250 0.469421 0.000000
0.469421 0.469421 0.000000
0.521210 0.469421 0.000000
0.570923 0.469421 0.000000
0.617645 0.469421 0.000000
0.661438 0.469421 0.000000
0.702240 0.469421 0.000000
0.740112 0.469421 0.000000
0.775146 0.469421 0.000031
0.807343 0.469421 0.000031
0.836823 0.469421 0.000031
0.863617 0.469421 0.000031
0.887878 0.469421 0.000031
0.909668 0.469421 0.000031
0.929016 0.469421 0.000031
0.946136 0.469421 0.000031
0.961029 0.469421 0.000061
0.973785 0.469421 0.000061
0.984497 0.469421 0.000061
0.993225 0.469421 0.000061
1.000000 0.469421 0.000061
0.000000 0.521210 0.000000
0.028046 0.521210 0.000000
0.058105 0.521210 0.000000
0.090179 0.521210 0.000000
0.124268 0.521210 0.000000
0.160370 0.521210 0.000000
0.198486 0.521210 0.000000
0.238586 0.521210 0.000000
0.280731 0.521210 0.000000
0.324890 0.521210 0.000000
0.371063 0.521210 0.000000
0.419250 0.521210 0.000000
0.469421 0.521210 0.000000
0.521210 0.521210 0.000000
0.570923 0.521210 0.000000
0.617645 0.521210 0.000000
0.661438 0.521210 0.000000
0.702240 0.521210 0.000000
0.740112 0.521210 0.000000
0.775146 0.521210 0.000000
0.807343 0.521210 0.000031
0.836823 0.521210 0.000031
0.863617 0.521210 0.000031
0.887878 0.521210 0.000031
0.909668 0.521210 0.000031
0.929016 0.521210 0.000031
0.946136 0.521210 0.000031
0.961029 0.521210 0.000031
0.973785 0.521210 0.000031
0.984497 0.521210 0.000031
0.993225 0.521210 0.000061
1.000000 0.521210 0.000061
0.000000 0.570923 0.000000
0.028046 0.570923 0.000000
0.058105 0.570923 0.000000
0.090179 0.570923 0.000000
0.124268 0.570923 0.000000
0.160370 0.570923 0.000000
0.198486 0.570923 0.000000
0.238586 0.570923 0.000000
0.280731 0.570923 0.000000
0.324890 0.570923 0.000000
0.371063 0.570923 0.000000
0.419250 0.570923 0.000000
0.469421 0.570923 0.000000
0.521210 0.570923 0.000000
0.570923 0.570923 0.000000
0.617645 0.570923 0.000000
0.661438 0.570923 0.000000
0.702240 0.570923 0.000000
0.740112 0.570923 0.000000
0.775146 0.570923 0.000000
0.807343 0.570923 0.000000
0.836823 0.570923 0.000000
0.863617 0.570923 0.000031
0.887878 0.570923 0.000031
0.909668 0.570923 0.000031
0.929016 0.570923 0.000031
0.946136 0.570923 0.000031
0.961029 0.570923 0.000031
0.973785 0.570923 0.000031
0.984497 0.570923 0.000031
0.993225 0.570923 0.000031
1.000000 0.570923 0.000031
0.000000 0.617645 0.000000
0.028046 0.617645 0.000000
0.058105 0.617645 0.000000
0.090179 0.617645 0.000000
0.124268 0.617645 0.000000
0.160370 0.617645 0.000000
0.198486 0.617645 0.000000
0.238586 0.617645 0.000000
0.280731 0.617645 0.000000
0.324890 0.617645 0.000000
0.371063 0.617645 0.000000
0.419250 0.617645 0.000000
0.469421 0.617645 0.000000
0.521210 0.617645 0.000000
0.570923 0.617645 0.000000
0.617645 0.617645 0.000000
0.661438 0.617645 0.000000
0.702240 0.617645 0.000000
0.740112 0.617645 0.000000
0.775146 0.617645 0.000000
0.807343 0.617645 0.000000
0.836823 0.617645 0.000000
0.863617 0.617645 0.000000
0.887878 0.617645 0.000000
0.909668 0.617645 0.000000
0.929016 0.617645 0.000031
0.946136 0.617645 0.000031
0.961029 0.617645 0.000031
0.973785 0.617645 0.000031
0.984497 0.617645 0.000031
0.993225 0.617645 0.000031
1.000000 0.617645 0.000031
0.000000 0.661438 0.000000
0.028046 0.661438 0.000000
0.058105 0.661438 0.000000
0.090179 0.661438 0.000000
0.124268 0.661438 0.000000
0.160370 0.661438 0.000000
0.198486 0.661438 0.000000
0.238586 0.661438 0.000000
0.280731 0.661438 0.000000
0.324890 0.661438 0.000000
0.371063 0.661438 0.000000
0.419250 0.661438 0.000000
0.469421 0.661438 0.000000
0.521210 0.661438 0.000000
0.570923 0.661438 0.000000
0.617645 0.661438 0.000000
0.661438 0.661438 0.000000
0.702240 0.661438 0.000000
0.740112 0.661438 0.000000
0.775146 0.661438 0.000000
0.807343 0.661438 0.000000
0.836823 0.661438 0.000000
0.863617 0.661438 0.000000
0.887878 0.661438 0.000000
0.909668 0.661438 0.000000
0.929016 0.661438 0.000000
0.946136 0.661438 0.000000
0.961029 0.661438 0.000031
0.973785 0.661438 0.000031
0.984497 0.661438 0.000031
0.993225 0.661438 0.000031
1.000000 0.661438 0.000031
0.000000 0.702240 0.000000
0.028046 0.702240 0.000000
0.058105 0.702240 0.000000
0.090179 0.702240 0.000000
0.124268 0.702240 0.000000
0.160370 0.702240 0.000000
0.198486 0.702240 0.000000
0.238586 0.702240 0.000000
0.280731 0.702240 0.000000
0.324890 0.702240 0.000000
0.371063 0.702240 0.000000
0.419250 0.702240 0.000000
0.469421 0.702240 0.000000
0.521210 0.702240 0.000000
0.570923 0.702240 0.000000
0.617645 0.702240 0.000000
0.661438 0.702240 0.000000
0.702240 0.702240 0.000000
0.740112 0.702240 0.000000
0.775146 0.702240 0.000000
0.807343 0.702240 0.000000
0.836823 0.702240 0.000000
0.863617 0.702240 0.000000
0.887878 0.702240 0.000000
0.909668 0.702240 0.000000
0.929016 0.702240 0.000000
0.946136 0.702240 0.000000
0.961029 0.702240 0.000000
0.973785 0.702240 0.000000
0.984497 0.702240 0.000000
0.993225 0.702240 0.000000
1.000000 0.702240 0.000000
0.000000 0.740112 0.000000
0.028046 0.740112 0.000000
0.058105 0.740112 0.000000
0.090179 0.740112 0.000000
0.124268 0.740112 0.000000
0.160370 0.740112 0.000000
0.198486 0.740112 0.000000
0.238586 0.740112 0.000000
0.280731 0.740112 0.000000
0.324890 0.740112 0.000000
0.371063 0.740112 0.000000
0.419250 0.740112 0.000000
0.469421 0.740112 0.000000
0.521210 0.740112 0.000000
0.570923 0.740112 0.000000
0.617645 0.740112 0.000000
0.661438 0.740112 0.000000
0.702240 0.740112 0.000000
0.740112 0.740112 0.000000
0.775146 0.740112 0.000000
0.807343 0.740112 0.000000
0.836823 0.740112 0.000000
0.863617 0.740112 0.000000
0.887878 0.740112 0.000000
0.909668 0.740112 0.000000
0.929016 0.740112 0.000000
0.946136 0.740112 0.000000
0.961029 0.740112 0.000000
0.973785 0.740112 0.000000
0.984497 0.740112 0.000000
0.993225 0.740112 0.000000
1.000000 0.740112 0.000000
0.000000 0.775146 0.000000
0.028046 0.775146 0.000000
0.058105 0.775146 0.000000
0.090179 0.775146 0.000000
0.124268 0.775146 0.000000
0.160370 0.775146 0.000000
0.198486 0.775146 0.000000
0.238586 0.775146 0.000000
0.280731 0.775146 0.000000
0.324890 0.775146 0.000000
0.371063 0.775146 0.000000
0.419250 0.775146 0.000000
0.469421 0.775146 0.000000
0.521210 0.775146 0.000000
0.570923 0.775146 0.000000
0.617645 0.775146 0.000000
0.661438 0.775146 0.000000
0.702240 0.775146 0.000000
0.740112 0.775146 0.000000
0.775146 0.775146 0.000000
0.807343 0.775146 0.000000
0.836823 0.775146 0.000000
0.863617 0.775146 0.000000
0.887878 0.775146 0.000000
0.909668 0.775146 0.000000
0.929016 0.775146 0.000000
0.946136 0.775146 0.000000
0.961029 0.775146 0.000000
0.973785 0.775146 0.000000
0.984497 0.775146 0.000000
0.993225 0.775146 0.000000
1.000000 0.775146 0.000000
0.000000 0.807343 0.000000
0.028015 0.807343 0.000000
0.058105 0.807343 0.000000
0.090179 0.807343 0.000000
0.124268 0.807343 0.000000
0.160370 0.807343 0.000000
0.198486 0.807343 0.000000
0.238586 0.807343 0.000000
0.280731 0.807343 0.000000
0.324890 0.807343 0.000000
0.371063 0.807343 0.000000
0.419250 0.807343 0.000000
0.469421 0.807343 0.000000
0.521210 0.807343 0.000000
0.570923 0.807343 0.000000
0.617645 0.807343 0.000000
0.661438 0.807343 0.000000
0.702240 0.807343 0.000000
0.740112 0.807343 0.000000
0.775146 0.807343 0.000000
0.807343 0.807343 0.000000
0.836823 0.807343 0.000000
0.863617 0.807343 0.000000
0.887878 0.807343 0.000000
0.909668 0.807343 0.000000
0.929016 0.807343 0.000000
0.946136 0.807343 0.000000
0.961029 0.807343 0.000000
0.973785 0.807343 0.000000
0.984497 0.807343 0.000000
0.993225 0.807343 0.000000
1.000000 0.807343 0.000000
0.000000 0.836823 0.000000
0.028015 0.836823 0.000000
0.058105 0.836823 0.000000
0.090179 0.836823 0.000000
0.124268 0.836823 0.000000
0.160370 0.836823 0.000000
0.198486 0.836823 0.000000
0.238586 0.836823 0.000000
0.280731 0.836823 0.000000
0.324890 0.836823 0.000000
0.371063 0.836823 0.000000
0.419250 0.836823 0.000000
0.469421 0.836823 0.000000
0.521210 0.836823 0.000000
0.570923 0.836823 0.000000
0.617645 0.836823 0.000000
0.661438 0.836823 0.000000
0.702240 0.836823 0.000000
0.740112 0.836823 0.000000
0.775146 0.836823 0.000000
0.807343 0.836823 0.000000
0.836823 0.836823 0.000000
0.863617 0.836823 0.000000
0.887878 0.836823 0.000000
0.909668 0.836823 0.000000
0.929016 0.836823 0.000000
0.946136 0.836823 0.000000
0.961029 0.836823 0.000000
0.973785 0.836823 0.000000
0.984497 0.836823 0.000000
0.993225 0.836823 0.000000
1.000000 0.836823 0.000000
0.000000 0.863617 0.000000
0.028015 0.863617 0.000000
0.058105 0.863617 0.000000
0.090179 0.863617 0.000000
0.124268 0.863617 0.000000
0.160370 0.863617 0.000000
0.198486 0.863617 0.000000
0.238586 0.863617 0.000000
0.280731 0.863617 0.000000
0.324890 0.863617 0.000000
0.371063 0.863617 0.000000
0.419250 0.863617 0.000000
0.469421 0.863617 0.000000
0.521210 0.863617 0.000000
0.570923 0.863617 0.000000
0.617645 0.863617 0.000000
0.661438 0.863617 0.000000
0.702240 0.863617 0.000000
0.740112 0.863617 0.000000
0.775146 0.863617 0.000000
0.807343 0.863617 0.000000
0.836823 0.863617 0.000000
0.863617 0.863617 0.000000
0.887878 0.863617 0.000000
0.909668 0.863617 0.000000
0.929016 0.863617 0.000000
0.946136 0.863617 0.000000
0.961029 0.863617 0.000000
0.973785 0.863617 0.000000
0.984497 0.863617 0.000000
0.993225 0.863617 0.000000
1.000000 0.863617 0.000000
0.000000 0.887878 0.000000
0.028015 0.887878 0.000000
0.058105 0.887878 0.000000
0.090179 0.887878 0.000000
0.124268 0.887878 0.000000
0.160370 0.887878 0.000000
0.198486 0.887878 0.000000
0.238586 0.887878 0.000000
0.280731 0.887878 0.000000
0.324890 0.887878 0.000000
0.371063 0.887878 0.000000
0.419250 0.887878 0.000000
0.469421 0.887878 0.000000
0.521210 0.887878 0.000000
0.570923 0.887878 0.000000
0.617645 0.887878 0.000000
0.661438 0.887878 0.000000
0.702240 0.887878 0.000000
0.740112 0.887878 0.000000
0.775146 0.887878 0.000000
0.807343 0.887878 0.000000
0.836823 0.887878 0.000000
0.863617 0.887878 0.000000
0.887878 0.887878 0.000000
0.909668 0.887878 0.000000
0.929016 0.887878 0.000000
0.946136 0.887878 0.000000
0.961029 0.887878 0.000000
0.973785 0.887878 0.000000
0.984497 0.887878 0.000000
0.993225 0.887878 0.000000
1.000000 0.887878 0.000000
0.000000 0.909668 0.000000
0.028015 0.909668 0.000000
0.058105 0.909668 0.000000
0.090179 0.909668 0.000000
0.124268 0.909668 0.000000
0.160370 0.909668 0.000000
0.198486 0.909668 0.000000
0.238586 0.909668 0.000000
0.280731 0.909668 0.000000
0.324890 0.909668 0.000000
0.371063 0.909668 0.000000
0.419250 0.909668 0.000000
0.469421 0.909668 0.000000
0.521210 0.909668 0.000000
0.570923 0.909668 0.000000
0.617645 0.909668 0.000000
0.661438 0.909668 0.000000
0.702240 0.909668 0.000000
0.740112 0.909668 0.000000
0.775146 0.909668 0.000000
0.807343 0.909668 0.000000
0.836823 0.909668 0.000000
0.863617 0.909668 0.000000
0.887878 0.909668 0.000000
0.909668 0.909668 0.000000
0.929016 0.909668 0.000000
0.946136 0.909668 0.000000
0.961029 0.909668 0.000000
0.973785 0.909668 0.000000
0.984497 0.909668 0.000000
0.993225 0.909668 0.000000
1.000000 0.909668 0.000000
0.000000 0.929016 0.000000
0.028015 0.929016 0.000000
0.058105 0.929016 0.000000
0.090179 0.929016 0.000000
0.124268 0.929016 0.000000
0.160370 0.929016 0.000000
0.198486 0.929016 0.000000
0.238586 0.929016 0.000000
0.280731 0.929016 0.000000
0.324890 0.929016 0.000000
0.371063 0.929016 0.000000
0.419250 0.929016 0.000000
0.469421 0.929016 0.000000
0.521210 0.929016 0.000000
0.570923 0.929016 0.000000
0.617645 0.929016 0.000000
0.661438 0.929016 0.000000
0.702240 0.929016 0.000000
0.740112 0.929016 0.000000
0.775146 0.929016 0.000000
0.807343 0.929016 0.000000
0.836823 0.929016 0.000000
0.863617 0.929016 0.000000
0.887878 0.929016 0.000000
0.909668 0.929016 0.000000
0.929016 0.929016 0.000000
0.946136 0.929016 0.000000
0.961029 0.929016 0.000000
0.973785 0.929016 0.000000
0.984497 0.929016 0.000000
0.993225 0.929016 0.000000
1.000000 0.929016 0.000000
0.000000 0.946136 0.000000
0.028015 0.946136 0.000000
0.058105 0.946136 0.000000
0.090179 0.946136 0.000000
0.124268 0.946136 0.000000
0.160370 0.946136 0.000000
0.198486 0.946136 0.000000
0.238586 0.946136 0.000000
0.280731 0.946136 0.000000
0.324890 0.946136 0.000000
0.371063 0.946136 0.000000
0.419250 0.946136 0.000000
0.469421 0.946136 0.000000
0.521210 0.946136 0.000000
0.570923 0.946136 0.000000
0.617645 0.946136 0.000000
0.661438 0.946136 0.000000
0.702240 0.946136 0.000000
0.740112 0.946136 0.000000
0.775146 0.946136 0.000000
0.807343 0.946136 0.000000
0.836823 0.946136 0.000000
0.863617 0.946136 0.000000
0.887878 0.946136 0.000000
0.909668 0.946136 0.000000
0.929016 0.946136 0.000000
0.946136 0.946136 0.000000
0.961029 0.946136 0.000000
0.973785 0.946136 0.000000
0.984497 0.946136 0.000000
0.993225 0.946136 0.000000
1.000000 0.946136 0.000000
0.000000 0.961029 0.000000
0.028015 0.961029 0.000000
0.058105 0.961029 0.000000
0.090179 0.961029 0.000000
0.124268 0.961029 0.000000
0.160370 0.961029 0.000000
0.198486 0.961029 0.000000
0.238586 0.961029 0.000000
0.280731 0.961029 0.000000
0.324890 0.961029 0.000000
0.371063 0.961029 0.000000
0.419250 0.961029 0.000000
0.469421 0.961029 0.000000
0.521210 0.961029 0.000000
0.570923 0.961029 0.000000
0.617645 0.961029 0.000000
0.661438 0.961029 0.000000
0.702240 0.961029 0.000000
